html/images/os/extremevoss.svg

<svg viewBox="0 0 100 100" xmlns="http://www.w3.org/2000/svg"><g fill="#6502a2"><g clip-rule="evenodd" fill-rule="evenodd" stroke-width="1.46"><path d="m95 16.04v-16.04h-90.082v63.96l19.303-16.04v-31.88z"/><path d="m82.131 47.92v-16.038h-38.845v16.04zm-57.91 32.08h70.779v-16.04h-90.082z"/></g><text font-size="24.874" letter-spacing="0" transform="scale(1.02324 .9773)" word-spacing="0" x="23.541" y="101.295"><tspan x="23.541" y="101.295">VOSS</tspan></text></g></svg>

<svg xmlns="http://www.w3.org/2000/svg" version="1" viewBox="0 0 100 100"><g clip-rule="evenodd" fill="#6502a2" fill-rule="evenodd" stroke-width="1.46"><path d="M95 16.04V0H4.918v63.96l19.303-16.04V16.04z"/><path d="M82.131 47.92V31.882H43.286v16.04zM24.221 80H95V63.96H4.918z"/></g><text style="line-height:1.25;text-orientation:upright" x="23.541" y="101.295" transform="scale(1.02324 .9773)" font-size="24.874" letter-spacing="0" word-spacing="0" fill="#6502a2"><tspan x="23.541" y="101.295">VOSS</tspan></text></svg>
